svgs/regular/fire-hydrant.svg

<svg xmlns="http://www.w3.org/2000/svg" viewBox="0 0 384 512"><!-- Font Awesome Pro 6.0.0-alpha2 by @fontawesome - https://fontawesome.com License - https://fontawesome.com/license (Commercial License) --><path d="M56 176H328C341.254 176 352 165.254 352 152C352 138.744 341.254 128 328 128H315.475C303.865 83.174 268.826 48.135 224 36.525V32C224 14.328 209.672 0 192 0S160 14.328 160 32V36.525C115.174 48.135 80.135 83.174 68.525 128H56C42.746 128 32 138.744 32 152C32 165.254 42.746 176 56 176ZM320 240V208H272V272H304V368H272V464H112V368H80V272H112V208H64V240C46.326 240 32 254.326 32 272V368C32 385.672 46.326 400 64 400V464H56C42.746 464 32 474.744 32 488C32 501.254 42.746 512 56 512H328C341.254 512 352 501.254 352 488C352 474.744 341.254 464 328 464H320V400C337.674 400 352 385.672 352 368V272C352 254.326 337.674 240 320 240ZM128 320C128 355.346 156.654 384 192 384S256 355.346 256 320C256 284.652 227.346 256 192 256S128 284.652 128 320Z"/></svg>

<svg xmlns="http://www.w3.org/2000/svg" viewBox="0 0 384 512"><!--! Font Awesome Pro 6.0.0-alpha3 by @fontawesome - https://fontawesome.com License - https://fontawesome.com/license (Commercial License) --><path d="M56 176h272C341.3 176 352 165.3 352 152C352 138.7 341.3 128 328 128h-12.53C303.9 83.17 268.8 48.13 224 36.53V32c0-17.67-14.33-32-32-32S160 14.33 160 32v4.525C115.2 48.13 80.13 83.17 68.53 128H56C42.75 128 32 138.7 32 152C32 165.3 42.75 176 56 176zM320 240v-32h-48v64h32v96h-32v96h-160v-96h-32v-96h32v-64H64v32c-17.67 0-32 14.33-32 32v96c0 17.67 14.33 32 32 32v64H56C42.75 464 32 474.7 32 488C32 501.3 42.75 512 56 512h272c13.25 0 24-10.75 24-24c0-13.26-10.75-24-24-24H320v-64c17.67 0 32-14.33 32-32v-96C352 254.3 337.7 240 320 240zM128 320c0 35.35 28.65 64 64 64s64-28.65 64-64c0-35.35-28.65-64-64-64S128 284.7 128 320z"/></svg>
